src/components/Robot/drone2.svg

<svg height="464pt" viewBox="0 -16 464 464" width="464pt" xmlns="http://www.w3.org/2000/svg"><g fill="#7d8d9c"><path d="m74.179688 86.625 22.625-22.625 99.601562 99.597656-22.628906 22.628906zm0 0"/><path d="m96 367.996094-22.628906-22.625 96.003906-96.003906 22.628906 22.628906zm0 0"/><path d="m290.222656 186.226562-22.625-22.628906 99.597656-99.597656 22.628907 22.625zm0 0"/><path d="m267.996094 268.003906 22.628906-22.625 100 100-22.628906 22.628906zm0 0"/></g><path d="m224 104h16c39.765625 0 72 32.234375 72 72v80c0 39.765625-32.234375 72-72 72h-16c-39.765625 0-72-32.234375-72-72v-80c0-39.765625 32.234375-72 72-72zm0 0" fill="#394d5c"/><path d="m56 0h32c30.929688 0 56 25.070312 56 56v32c0 30.929688-25.070312 56-56 56h-32c-30.929688 0-56-25.070312-56-56v-32c0-30.929688 25.070312-56 56-56zm0 0" fill="#394d5c"/><path d="m56 288h32c30.929688 0 56 25.070312 56 56v32c0 30.929688-25.070312 56-56 56h-32c-30.929688 0-56-25.070312-56-56v-32c0-30.929688 25.070312-56 56-56zm0 0" fill="#394d5c"/><path d="m112 72c0 22.089844-17.910156 40-40 40s-40-17.910156-40-40 17.910156-40 40-40 40 17.910156 40 40zm0 0" fill="#aabece"/><path d="m112 360c0 22.089844-17.910156 40-40 40s-40-17.910156-40-40 17.910156-40 40-40 40 17.910156 40 40zm0 0" fill="#aabece"/><path d="m408 144h-32c-30.929688 0-56-25.070312-56-56v-32c0-30.929688 25.070312-56 56-56h32c30.929688 0 56 25.070312 56 56v32c0 30.929688-25.070312 56-56 56zm0 0" fill="#394d5c"/><path d="m408 432h-32c-30.929688 0-56-25.070312-56-56v-32c0-30.929688 25.070312-56 56-56h32c30.929688 0 56 25.070312 56 56v32c0 30.929688-25.070312 56-56 56zm0 0" fill="#394d5c"/><path d="m432 72c0 22.089844-17.910156 40-40 40s-40-17.910156-40-40 17.910156-40 40-40 40 17.910156 40 40zm0 0" fill="#aabece"/><path d="m432 360c0 22.089844-17.910156 40-40 40s-40-17.910156-40-40 17.910156-40 40-40 40 17.910156 40 40zm0 0" fill="#aabece"/><path d="m216 128h32v16h-32zm0 0" fill="#dd3e46"/><path d="m216 160h32v16h-32zm0 0" fill="#dd3e46"/><path d="m216 192h32v16h-32zm0 0" fill="#dd3e46"/><path d="m256 328c0 13.253906-10.746094 24-24 24s-24-10.746094-24-24 10.746094-24 24-24 24 10.746094 24 24zm0 0" fill="#7fcac9"/></svg>

<svg xmlns="http://www.w3.org/2000/svg" width="464" height="432" viewBox="0 0 464 432">
  <g fill="none" transform="rotate(-180 232 216)">
    <g fill="#7D8D9C" transform="translate(73 64)">
      <polygon points="1.18 22.625 23.805 0 123.406 99.598 100.777 122.227"/>
      <polygon points="23 303.996 .371 281.371 96.375 185.367 119.004 207.996"/>
      <polygon points="217.223 122.227 194.598 99.598 294.195 0 316.824 22.625"/>
      <polygon points="194.996 204.004 217.625 181.379 317.625 281.379 294.996 304.008"/>
    </g>
    <path fill="#394D5C" d="M224 104L240 104C279.765625 104 312 136.234375 312 176L312 256C312 295.765625 279.765625 328 240 328L224 328C184.234375 328 152 295.765625 152 256L152 176C152 136.234375 184.234375 104 224 104zM56 0L88 0C118.929688 0 144 25.070312 144 56L144 88C144 118.929688 118.929688 144 88 144L56 144C25.070312 144 0 118.929688 0 88L0 56C0 25.070312 25.070312 0 56 0zM56 288L88 288C118.929688 288 144 313.070312 144 344L144 376C144 406.929688 118.929688 432 88 432L56 432C25.070312 432 0 406.929688 0 376L0 344C0 313.070312 25.070312 288 56 288z"/>
    <path fill="#AABECE" d="M112 72C112 94.089844 94.089844 112 72 112 49.910156 112 32 94.089844 32 72 32 49.910156 49.910156 32 72 32 94.089844 32 112 49.910156 112 72zM112 360C112 382.089844 94.089844 400 72 400 49.910156 400 32 382.089844 32 360 32 337.910156 49.910156 320 72 320 94.089844 320 112 337.910156 112 360z"/>
    <path fill="#394D5C" d="M408 144L376 144C345.070312 144 320 118.929688 320 88L320 56C320 25.070312 345.070312 0 376 0L408 0C438.929688 0 464 25.070312 464 56L464 88C464 118.929688 438.929688 144 408 144zM408 432L376 432C345.070312 432 320 406.929688 320 376L320 344C320 313.070312 345.070312 288 376 288L408 288C438.929688 288 464 313.070312 464 344L464 376C464 406.929688 438.929688 432 408 432z"/>
    <path fill="#AABECE" d="M432 72C432 94.089844 414.089844 112 392 112 369.910156 112 352 94.089844 352 72 352 49.910156 369.910156 32 392 32 414.089844 32 432 49.910156 432 72zM432 360C432 382.089844 414.089844 400 392 400 369.910156 400 352 382.089844 352 360 352 337.910156 369.910156 320 392 320 414.089844 320 432 337.910156 432 360z"/>
    <polygon fill="#DD3E46" points="216 128 248 128 248 144 216 144"/>
    <polygon fill="#DD3E46" points="216 160 248 160 248 176 216 176"/>
    <polygon fill="#DD3E46" points="216 192 248 192 248 208 216 208"/>
    <path fill="#7FCAC9" d="M256,328 C256,341.253906 245.253906,352 232,352 C218.746094,352 208,341.253906 208,328 C208,314.746094 218.746094,304 232,304 C245.253906,304 256,314.746094 256,328 Z"/>
  </g>
</svg>
